public/assets/third.svg

<svg width="17" height="16" viewBox="0 0 17 16" fill="none" xmlns="http://www.w3.org/2000/svg">
<path fill-rule="evenodd" clip-rule="evenodd" d="M2 0C0.895431 0 0 0.895431 0 2V14C0 15.1046 0.89543 16 2 16H15C16.1046 16 17 15.1046 17 14V2C17 0.895431 16.1046 0 15 0H2ZM3.7583 6.08705C3.96965 6.23077 4.2518 6.2295 4.46176 6.08387L5.09347 5.64571V8.25143C5.09347 8.5544 5.34728 8.8 5.66037 8.8C5.97346 8.8 6.22727 8.5544 6.22727 8.25143L6.22727 4.54857C6.22727 4.2456 5.97346 4 5.66037 4H5.56C5.29469 4 5.03778 4.09003 4.83399 4.25443L3.71858 5.15422C3.41137 5.40205 3.43106 5.86451 3.7583 6.08705ZM10.557 4.17115C10.8383 4.40459 10.8454 4.78919 10.5729 5.03019L6.53678 11.8152C6.26427 12.0562 5.81528 12.0623 5.53395 11.8288C5.25262 11.5954 5.24547 11.2108 5.51798 10.9698L9.55412 4.18483C9.82664 3.94384 10.2756 3.93771 10.557 4.17115ZM10 7.5C10 7.22386 10.2239 7 10.5 7H13C13.5523 7 14 7.44772 14 8V11C14 11.5523 13.5523 12 13 12H10.5C10.2239 12 10 11.7761 10 11.5C10 11.2239 10.2239 11 10.5 11H13V10H10.5C10.2239 10 10 9.77614 10 9.5C10 9.22386 10.2239 9 10.5 9H13V8H10.5C10.2239 8 10 7.77614 10 7.5Z" fill="#3E3E3E"/>
</svg>

<svg width="17" height="16" fill="none" xmlns="http://www.w3.org/2000/svg"><path fill-rule="evenodd" clip-rule="evenodd" d="M2 0a2 2 0 0 0-2 2v12a2 2 0 0 0 2 2h13a2 2 0 0 0 2-2V2a2 2 0 0 0-2-2H2Zm1.758 6.087a.624.624 0 0 0 .704-.003l.631-.438V8.25c0 .303.254.549.567.549a.558.558 0 0 0 .567-.549V4.55A.558.558 0 0 0 5.66 4h-.1c-.265 0-.522.09-.726.254l-1.115.9a.577.577 0 0 0 .04.933Zm6.799-1.916a.548.548 0 0 1 .016.86l-4.036 6.784a.795.795 0 0 1-1.003.014.548.548 0 0 1-.016-.86l4.036-6.784a.796.796 0 0 1 1.003-.014ZM10 7.5a.5.5 0 0 1 .5-.5H13a1 1 0 0 1 1 1v3a1 1 0 0 1-1 1h-2.5a.5.5 0 0 1 0-1H13v-1h-2.5a.5.5 0 0 1 0-1H13V8h-2.5a.5.5 0 0 1-.5-.5Z" fill="#3E3E3E"/></svg>
